-----BEGIN PGP PUBLIC KEY BLOCK-----

mQINBGqH6F8BEACd+2AveEZZ32RAskKGKcrR7YYnm+zUOJ5mGqmKlJMxQlE/lCqk
5R1GkaIWab7TQqwaVFbbvQYOOC9gJfnN5i6GMN7eW9cTuc00vAl3QeOQPnJNRtrP
u9y7FUpfMj1QHW/sMGPqUyZZaHFFnW85/I2j1eeSSt9TjomjKirxVU2EJ1Aevfvj
S9LHCsjuqFacEBXoZi28GpqKeJGXlreW/AdCdoBzr/IgrccR8ONh2pZb8x9zDq8D
gLXQbiUU5LHhKEOOYaO6tUzrLXMT2RKv3DY/w1G8ekATcxtn957jSOXBbx0jmG8Z
hn/owVc09N0ACOfBQVpDt5hUujadbIIF882PuiG1fpPQgjBiM8QB8CG9OFpj6d/e
8SP167xX9q5Q5Qvi4sr/bndcSy2VNONMala/4VvEEw1h821q5euQ0hV+8u592bvy
+0GRX5kLAO5Ell3ojc16otXlBliY5SmOLqNx7T5bgblWrPzimApP6f4a9tAeroxS
Th2lu4nmxuW4nS07NUwvUogZPY8ihs7pORYtmqjzSpnT0wJyh8OeDMi4AX0PVJjR
rNwZ3b4IPf8H0T62wHVcUAxo+4b8wDlVED3E4uo9salP/Fvp6JdAUsRJrX1MkpL8
M1cBFwCls3ZRdOlLksM9fjGmCwy3InGQ81fiXKmBn7ufP9ef5vrZ1TNBgQARAQAB
tBlTU1cgPHNlY3VyaXR5QHNzdy5jb20uYXU+iQJzBBMBCABdFiEEOtZySjmTS3WA
5y/UClWnkawBOMIFAmqH6F8bFIAAAAAABAAObWFudTIsMi41KzEuMTIsMiwxAhsD
BQkBnfcABQsJCAcCAiICBhUKCQgLAgQWAgMBAh4HAheAAAoJEApVp5GsATjC1PwQ
AII0rygv22HkPfknSk3LcXY+i9qMmmh3LbgJvqmVLQ4lhhvPlicU//iWpbLouE8A
Jsr7MgK7hK61DhHvBFny86GoIxYYj76L8jDsGPhna+N93D3Cy9+n92/oyxdiBp9e
CDoFCImwviArBH9iMsKeAiamgeNtc+EQ4InCq8F2u8lj+DWDDI8EkJOP8gXPmkwS
q23JuanuZZz/TWRPAJcbChhIHq5iN+3/5q/pZw40633dTdRGzSWISXzg3wotwl8x
7P+K24UuImVVkQBw7lKORWgmbAYy4p1nMpxvq2lYHDCePlxjZf0HIhP5YrQ6ntFA
VKuyTUKgCkg4fHdOHFysw5U+VexboSx4Umzh+qlBNDCMm4N0qgqfA92dlXuYLqIn
2MHgejzrWKEDVQduRd53VH0JSGwDussDPuJGRPlKaOqMJpRbyAl4BEFMd5DP34Jp
bN1JWrk58V5R1cto+ZXE04w9nxMQqdsSjwTbTqsOnzFzpjdq6+ff0xK6pO3Kn5jc
h+HGj+I6a0Ilk+vKBal4Yq+C/dATs8haYhKMgP0rKESPP4RbLbWr26ceNypPg2vf
y8+LKQB+r4tedkmlgyDD6DmHe/cJQeRumCRcz0gnUde80LcREuAkPAureXCeLnTb
jR1Y10+3LLMN1wzapdZKYcKxhXt+Nr5OtBhuBQEFscERuQINBGqH6F8BEAC6l8DR
Q3zNmgduc0O5MfXpY782ofziQ0egQFS4/aRi4WqjUl7PZCjzrYelr8VKU1pOWu6u
wpbl5N4+VsXZBqW4G1jzkoQ0NTQuAGyltINNGp7IHlVDGRyaoPIdkKbAbekjiurr
F6qelEJ1wz1r63lRrtJAQNb604eUIE+rNl4WBYSSUq2/tqhsYJRzBpfyqgWAKZ5J
5Bm48D+SfaaqxW6ir/FXdpGWJpCeGUg5RegEFi0haCxcvGgPCtg2/ntUOdoaAxdR
uHEbhQVx6lh00Nne6rOXmbNPSJzf6Hy7BPXts5JTOWm+hDfYvXX8hEZFb7N5TVNE
YKh7Tzykga2hZjaqWfrSl5C+JDPRa4BJLW3Gi2yylTzJiaMLE46oEhW+O2JhXSxo
dNa/S0+FcTloQ8TBOFT+zTe5EbI9FlGEwoUfELghASjRJh3XyLhORHHaIaheN7GE
CoiDh3j4RusQ56d1mgcrQCAlKKh11VRuq3XV23c7tL4yVHk9fqsdvvwgl+U+aBWZ
f9mEil+cSjgAnDLaQaHdPuCvxLxxaoxko5f3Hj8MvjK01oTdst/fKp0UIHNKDEwZ
CVsdKnF9xNt/fv/7zx9OfiZe00ITJMp7FfoMh9yhCWxgUGXaWuo/hAiEzY5yusXz
lPmTRPhWT3tD2tvUVqbxoKK6Rm+YqdUW27feDQARAQABiQJYBBgBCABCFiEEOtZy
SjmTS3WA5y/UClWnkawBOMIFAmqH6F8bFIAAAAAABAAObWFudTIsMi41KzEuMTIs
MiwxAhsMBQkBnfcAAAoJEApVp5GsATjCutMP/224vXD8BekjWoQHaICrky7pHjVt
Ynv26rCQ95Zq367PHy1GwMTRDzsWiamxgWVXw4cebOjga423uVovGs+Wh6yTljBn
HE0tr4cMtnPPS2vhnZuQRCMC5XVil5q63QWUSF6Pj6RIXGf03B1Pny3hLMSGUxhm
ilKGH8RBnVOumtx4HUNTMypPHUWOjdspVsIBLfx/W1jOaK+msjb/5mMVbHd5jTZj
vh9/1Iu9Dfvm/ZJcJuuzysMrx866rMTbRycX54UOThJe34hrJDVQHmcWGyeW2q0I
n0hnJckjhox+aCr4OlIeq6XefA0YBiTwsNervMXTTrRpLfzf4zltFvT/D000LNyw
+6opT6FF7/TA6AE1rV4FEJ5C/IUFyz8fX+id1jQEaVX++KWVryCrsfMmZZkArbQ5
62JOq4lhX6S8V1MfIDoNQSrNOekPE6KndFJ/YnJUP9Gusugiq/vhYLzPBxhaLYKG
RNhwVL3ueHbtdC8FBg/XghHyTi2/RMH3mTBtpE51wY7EaopLcdXoMU/gGXAmPTgl
ISYOYGvbtJiPI5XaUMlEJ55girlbA/4jtDXc/ObltawEJv2R8Ch2ysi18emIR1qI
j+sYCASbqgiTAf2UPuT5MdTgpg15f3GmQ23dY+HQxuKcM4dAv5XEwSaCRZhW2zPu
1Bux+cEeMKFfX0Lf
=NqEw
-----END PGP PUBLIC KEY BLOCK-----
